assets/svg/1f1f0-1f1f3.svg

<svg xmlns="http://www.w3.org/2000/svg" viewBox="0 0 64 64" enable-background="new 0 0 64 64"><path fill="#3e4347" d="m6.02 47.02c1.943 3.365 4.444 6.204 7.313 8.482l48.36-27.918c-.54-3.625-1.748-7.21-3.69-10.575-1.942-3.366-4.444-6.205-7.313-8.484l-48.36 27.918c.539 3.625 1.748 7.21 3.692 10.577"/><g fill="#ffe62e"><path d="m19.1 59.1l42.821-24.723c.181-2.252.104-4.531-.233-6.796l-48.36 27.918c1.792 1.427 3.728 2.632 5.769 3.601"/><path d="m2.328 36.439l48.36-27.918c-1.793-1.425-3.729-2.631-5.768-3.601l-42.823 24.724c-.181 2.251-.104 4.53.233 6.795"/></g><path fill="#699635" d="m44.909 4.925c-8.611-4.096-19.02-4.03-27.905 1.096-8.884 5.128-14.14 14.11-14.901 23.619l42.806-24.715"/><path fill="#ed4c5c" d="m19.11 59.09c8.612 4.095 19.02 4.03 27.906-1.095 8.884-5.13 14.14-14.11 14.901-23.62l-42.807 24.715"/><g fill="#fff"><path d="m21.998 40.13l4.576.574-3.474-3.237 1.767-4.267-3.932 2.254-3.489-3.214 1.038 4.628-3.917 2.282 4.573.604 1.07 4.626z"/><path d="m44.04 27.396l4.579.581-3.469-3.238 1.762-4.265-3.933 2.253-3.488-3.214 1.039 4.627-3.917 2.28 4.577.61 1.07 4.619z"/></g></svg>

<svg xmlns="http://www.w3.org/2000/svg" width="64" height="64" viewBox="0 0 64 64"><path fill="#3E4347" d="M6.02 47.016a29.886 29.886 0 0 0 7.313 8.482L61.689 27.58a29.927 29.927 0 0 0-3.69-10.575 29.879 29.879 0 0 0-7.313-8.484L2.328 36.439A29.896 29.896 0 0 0 6.02 47.016z"/><path fill="#FFE62E" d="M19.102 59.099l42.821-24.723a29.895 29.895 0 0 0-.233-6.796L13.333 55.498a29.723 29.723 0 0 0 5.769 3.601zM2.328 36.439L50.686 8.521a29.952 29.952 0 0 0-5.768-3.601L2.095 29.644a29.888 29.888 0 0 0 .233 6.795z"/><path fill="#699635" d="M44.909 4.925C36.298.829 25.887.892 17.004 6.021 8.12 11.149 2.861 20.134 2.103 29.64L44.909 4.925z"/><path fill="#ED4C5C" d="M19.108 59.095C27.72 63.19 38.131 63.128 47.014 58c8.884-5.13 14.143-14.113 14.901-23.62L19.108 59.095z"/><path fill="#FFF" d="M21.998 40.125l4.576.579-3.47-3.237 1.763-4.265-3.932 2.252-3.489-3.213 1.038 4.627-3.917 2.281 4.576.605 1.068 4.624zM44.041 27.396l4.578.581-3.471-3.238 1.764-4.265-3.933 2.253-3.488-3.214 1.039 4.628-3.917 2.279 4.575.606 1.068 4.623z"/></svg>
